X:1
T:G minor Oliver Holden, 1803
T:Joseph Hart, 1759 55. 55. 65. 65.
T:Bethlehem Judah No copyright. Treble-Tenor-Bass from The Charlestown Collection , 1803; Counter by B. C. Johnston, 2015.
%%score [ 1 2 3 4 ]
L:1/8
M:4/4
K:Bb
V:1 treble nm="Treble" snm="Tr."
V:2 treble nm="Counter" snm="C."
V:3 treble-8 nm="Tenor" snm="T."
V:4 bass nm="Bass" snm="B."
V:1
 z4 | z8 | z4 B4 | (d2 c2) B2 A2 | G6 d2 | d4 d2 d2 | f4 (B2 c2) | d2 g2 (G3 A) | B6 B2 | %9
 B4 G2 B2 | G4 G2 G2 | (G2 A2) B2 A2 | B6 z2 | z8 | z8 | z8 | z4 z2 d2 | d4 d2 g2 | d4 G2 G2 | %19
 d4 d2 d2 | d8 |] %21
V:2
 G4 | B4 A2 G2 | G4 B4 | (B2 A2) B2 A2 | G6 B2 | B4 B2 B2 | A4 (B2 A2) | G2 G2 (B3 c) | d6 B2 | %9
w: 1.~The|foun- tain of|Christ, Lord,|help * us to|sing; The|blood of our|Priest, our *|cru- ci- fied *|King; The|
 G4 G2 G2 | G4 E2 D2 | (G2 F2) D2 D2 | D6 z2 | z8 | z8 | z8 | z4 z2 G2 | (B2 A2) B2 G2 | %18
w: foun- tain that|clean- ses from|sin * and from|filth,||||And|rich- * ly dis-|
 (B3 A) G2 E2 | G4 A2 A2 | G8 |] %21
w: pen- * ses sal-|va- tion and|health.|
V:3
 G4 | B4 A2 G2 | c4 d4 | (B2 A2) G2 ^F2 | G6 G2 | B4 G2 d2 | c4 (d2 ef) | g2 d2 (B3 c) | d6 d2 | %9
w: |||||||||
 d4 B2 G2 | c4 c2 d2 | (B2 A2) G2 ^F2 | G6 d2 | (G2 A2) B2 c2 | (d2 c2) B2 d2 | (d2 c2) B2 A2 | %16
w: |||* And|rich- * ly dis-|pen- * ses sal-|va- * tion and|
 B6 d2 | (g2 ^f2) g2 d2 | (B3 c) d2 c2 | B4 A2 A2 | G8 |] %21
w: health, *|||||
V:4
 G,4 | G,4 D,2 D,2 | C,4 B,,4 | D,4 D,2 D,2 | G,6 G,2 | G,4 B,2 B,2 | F,4 (B,2 A,2) | G,2 G,2 D,4 | %8
 B,,6 B,,2 | B,,4 D,2 D,2 | C,4 C,2 B,,2 | D,4 D,2 D,2 | G,6 D,2 | (E,2 F,2) G,2 A,2 | %14
 (B,2 A,2) G,2 D,2 | (B,,2 C,2) D,2 F,2 | B,,6 B,,2 | D,4 B,,2 B,,2 | D,4 B,,2 C,2 | D,4 D,2 D,2 | %20
 G,,8 |] %21

